X: 6
T: Hull's reel
C: John Morris Rankin
I: RJ R-169
M: C|
L: 1/8
R: reel
K: E
ec |:\
"E"BE "..."E2 B2 Ac | "E"BE "..."E2 "A"cBce |\
[1,3 "E"BE "..."E2 B2 AB | "A"cBce "B7"fefg :|\
[2,4 "F#m"fgfe c2Bc | "A"efec "B7"Bc :|
|: ef |\
"E"gB "..."B2 "E/B"g2fg | "A"fc "..."c2 c2Bc |\
[1,3  "F#m"fc "..."c2 c2Bc | "B7"eB "..."B2 Bc :|\
[2,4 "F#m"fgfe c2Bc | "A"efec "B7"Bc :|\
["Fine" e[cf] | "E"[B2e2g2] |]

